X:1
T:Title
%%score { 1 | ( 2 3 ) }
L:1/8
M:4/4
K:Ab
V:1 treble nm="Grand Piano"
V:2 bass 
V:3 bass 
V:1
 z4 z2[Q:1/4=110] [CEA]2 | [Ec]2 [Ec]2 [DEB]2 [CEA]2 | [A,CE]4 [CEA]2 [A,EA]2 | %3
 [DEG]2 [CEA]2 B2 c2 | B6 [CEA]2 | [Ec]2 [Ec]2 [DEB]2 [CEA]2 | [A,CE]4 [CEA]2 [EAc]2 | %7
 [EGB]2 [EGB]2 [Ac]2 [A=d]2 | [Ge]6 E2 | d2 d2 d2 d2 | c4 c2 c2 | [FB]2 [FB]2 [EB]2 [B,=DA]2 | %12
 [B,EG]6 [G,E]2 | [A,EA]2 B2 c2 d2 | e4 [FAd]2 [DFB]2 | [CEA]2 [DEB]2 [CEA]2 [B,EG]2 | %16
[M:3/4] [CEA]6 |[M:1/4] [CEA]2 |[M:4/4] B2 c2 d3 G | A4 [CE]2 [EA]2 | [EB]2 [Ec]2 [Gd]3 [Gf] | %21
 f4 e2 c2 | e2 [EBd]2 [EAc]2 [DGB]2 | [CFA]2 [A,EG]2 [A,DF]2 [DFB]2 | [CEA]4 [DEG]4 | %25
[M:3/4] [CEA]6 |] %26
V:2
 z4 z2 A,,2 | [A,,A,]2 [A,,A,]2 A,,2 A,,2 | A,,4 A,,2 C,2 | B,,2 A,,2 [E,G,E]2 [E,A,E]2 | %4
 [E,G,E]6 A,,2 | [A,,A,]2 [A,,A,]2 A,,2 A,,2 | A,,4 A,,2 A,,2 | B,,2 B,,2 [B,,B,]2 [B,,B,]2 | %8
 [E,B,]6 [E,G,]2 | [E,G,E]2 [F,A,E]2 [G,B,E]2 [E,G,E]2 | [A,E]4 [A,E]2 [A,E]2 | %11
 [D,A,]2 [=D,A,]2 [E,G,]2 B,,2 | E,6 E,D, | C,2 [E,G,E]2[K:treble] [A,E]2 [A,B,E]2 | %14
 [A,CA]4[K:bass] D,2 D,2 | E,2 E,2 E,2 E,2 |[M:3/4] A,,6 |[M:1/4] A,,2 | %18
[M:4/4] [E,G,E]2 [E,A,E]2 [E,B,E]3 [E,DE] | [A,CE]4 [A,,A,]2 [C,A,]2 | %20
 [E,G,]2 [E,A,]2 [D,B,]3 [E,D] | D4 C2 [A,EA]2 | [A,CA]2 G,2[K:bass] A,2 E,2 | F,2 C,2 D,2 B,,2 | %24
 E,4 E,4 |[M:3/4] A,,6 |] %26
V:3
 x8 | x8 | x8 | x8 | x8 | x8 | x8 | x8 | x8 | x8 | x8 | x8 | x8 | x4[K:treble] x4 | x4[K:bass] x4 | %15
 x8 |[M:3/4] x6 |[M:1/4] x2 |[M:4/4] x8 | x8 | x8 | [A,A]6 z2 | x4[K:bass] x4 | x8 | x8 | %25
[M:3/4] x6 |] %26

